packages/foundations/assets/icons/functional/images/social/thumbs_up.svg

<svg xmlns="http://www.w3.org/2000/svg" width="32" height="32" fill="none"><path fill="#1A1C1F" fill-rule="evenodd" d="M19.504 3.045c-.394.058-.898.325-1.139.605-.264.305-.409.611-.688 1.455-.572 1.726-1.397 3.021-2.929 4.595a22.6 22.6 0 0 1-3.14 2.687l-.578.414-.203-.16a3.3 3.3 0 0 0-1.218-.564c-.517-.109-4.732-.108-5.249.001-.5.106-1.069.419-1.457.802-.374.368-.563.669-.762 1.214L2 14.48v4.987c0 4.687.006 5.005.098 5.304.264.855.849 1.562 1.582 1.909.652.31.731.316 3.493.297l2.507-.017.387-.158c.213-.088.543-.275.732-.417l.345-.258 1.295.462c4.681 1.675 7.705 2.494 8.873 2.405 2.104-.161 4.238-1.67 6.008-4.247.993-1.446 1.867-3.375 2.307-5.092.287-1.118.362-1.73.361-2.935 0-1.179-.086-1.852-.32-2.507q-.572-1.608-2.322-2.063c-.414-.108-.589-.116-3.065-.136l-2.626-.022.086-.196c1.304-2.973 1.586-5.058.92-6.79-.414-1.073-1.275-1.822-2.261-1.963-.421-.061-.466-.061-.896.002m.852 2.072c.205.125.403.453.532.883.145.483.133 1.54-.026 2.257-.231 1.044-.775 2.441-1.447 3.72-.202.384-.383.784-.403.89-.07.376.159.818.526 1.014.222.119.226.119 3.822.146 3.558.026 3.602.028 3.813.141.619.333.793.901.796 2.605.001.898-.017 1.161-.118 1.663-.301 1.501-.886 2.971-1.781 4.477-1.032 1.738-2.618 3.317-3.822 3.807-.997.406-1.584.362-3.876-.292-1.131-.323-3.922-1.239-5.452-1.789l-.92-.331v-4.79c0-2.634-.013-4.822-.028-4.862-.018-.048.183-.217.587-.492 1.58-1.074 3.795-3.094 4.831-4.404 1.004-1.27 1.666-2.477 2.134-3.891l.283-.856.19.001c.104 0 .266.046.359.103M9.37 14.083c.204.078.441.308.53.515.06.142.073 1.009.073 4.937v4.764l-.152.241c-.285.448-.261.444-2.728.463q-2.16.016-2.357-.041a1.06 1.06 0 0 1-.636-.56c-.092-.204-.098-.469-.098-4.909 0-4.441.006-4.704.098-4.906.107-.232.213-.341.46-.472.139-.073.462-.084 2.41-.086 1.465-.002 2.302.017 2.4.054"/></svg>

<svg width="32" height="32" viewBox="0 0 32 32" fill="none" xmlns="http://www.w3.org/2000/svg"><path d="M19.504 3.045 C 19.110 3.103,18.606 3.370,18.365 3.650 C 18.101 3.955,17.956 4.261,17.677 5.105 C 17.105 6.831,16.280 8.126,14.748 9.700 C 13.775 10.699,12.799 11.534,11.608 12.387 L 11.030 12.801 10.827 12.641 C 10.524 12.400,10.008 12.162,9.609 12.077 C 9.092 11.968,4.877 11.969,4.360 12.078 C 3.860 12.184,3.291 12.497,2.903 12.880 C 2.529 13.248,2.340 13.549,2.141 14.094 L 2.000 14.480 2.000 19.467 C 2.000 24.154,2.006 24.472,2.098 24.771 C 2.362 25.626,2.947 26.333,3.680 26.680 C 4.332 26.990,4.411 26.996,7.173 26.977 L 9.680 26.960 10.067 26.802 C 10.280 26.714,10.610 26.527,10.799 26.385 L 11.144 26.127 12.439 26.589 C 17.120 28.264,20.144 29.083,21.312 28.994 C 23.416 28.833,25.550 27.324,27.320 24.747 C 28.313 23.301,29.187 21.372,29.627 19.655 C 29.914 18.537,29.989 17.925,29.988 16.720 C 29.988 15.541,29.902 14.868,29.668 14.213 C 29.286 13.141,28.513 12.454,27.346 12.150 C 26.932 12.042,26.757 12.034,24.281 12.014 L 21.655 11.992 21.741 11.796 C 23.045 8.823,23.327 6.738,22.661 5.006 C 22.247 3.933,21.386 3.184,20.400 3.043 C 19.979 2.982,19.934 2.982,19.504 3.045 M20.356 5.117 C 20.561 5.242,20.759 5.570,20.888 6.000 C 21.033 6.483,21.021 7.540,20.862 8.257 C 20.631 9.301,20.087 10.698,19.415 11.977 C 19.213 12.361,19.032 12.761,19.012 12.867 C 18.942 13.243,19.171 13.685,19.538 13.881 C 19.760 14.000,19.764 14.000,23.360 14.027 C 26.918 14.053,26.962 14.055,27.173 14.168 C 27.792 14.501,27.966 15.069,27.969 16.773 C 27.970 17.671,27.952 17.934,27.851 18.436 C 27.550 19.937,26.965 21.407,26.070 22.913 C 25.038 24.651,23.452 26.230,22.248 26.720 C 21.251 27.126,20.664 27.082,18.372 26.428 C 17.241 26.105,14.450 25.189,12.920 24.639 L 12.000 24.308 12.000 19.518 C 12.000 16.884,11.987 14.696,11.972 14.656 C 11.954 14.608,12.155 14.439,12.559 14.164 C 14.139 13.090,16.354 11.070,17.390 9.760 C 18.394 8.490,19.056 7.283,19.524 5.869 L 19.807 5.013 19.997 5.014 C 20.101 5.014,20.263 5.060,20.356 5.117 M9.370 14.083 C 9.574 14.161,9.811 14.391,9.900 14.598 C 9.960 14.740,9.973 15.607,9.973 19.535 L 9.973 24.299 9.821 24.540 C 9.536 24.988,9.560 24.984,7.093 25.003 C 5.652 25.014,4.868 25.000,4.736 24.962 C 4.469 24.884,4.219 24.663,4.100 24.402 C 4.008 24.198,4.002 23.933,4.002 19.493 C 4.002 15.052,4.008 14.789,4.100 14.587 C 4.207 14.355,4.313 14.246,4.560 14.115 C 4.699 14.042,5.022 14.031,6.970 14.029 C 8.435 14.027,9.272 14.046,9.370 14.083 " fill="#1A1C1F" stroke="none" fill-rule="evenodd"></path></svg>
